src/assets/img/bone.svg

<svg width="24" height="24" viewBox="0 0 24 30" fill="none" xmlns="http://www.w3.org/2000/svg">
<path d="M26.0537 7.3335C25.419 6.45897 24.4904 5.89218 23.4708 5.75756C23.3462 4.44305 22.6573 3.26873 21.611 2.58828C20.5648 1.90814 19.2839 1.80124 18.1539 2.30002C17.0238 2.79881 16.177 3.84498 15.8681 5.12366C15.361 7.48901 14.2756 9.663 12.7255 11.4176L9.77215 14.616C8.13814 16.3062 6.11191 17.4854 3.90855 18.0286C3.24186 18.2301 2.63751 18.6221 2.15877 19.1634C1.68004 19.7047 1.34464 20.3757 1.18785 21.1058C0.923601 22.279 1.13872 23.5185 1.77831 24.5078C2.4181 25.4968 3.4202 26.1397 4.52849 26.2716C4.65303 27.5861 5.34219 28.7604 6.3883 29.4408C7.43442 30.1212 8.71531 30.2281 9.84538 29.7291C10.9754 29.2303 11.8224 28.1842 12.1311 26.9057C12.6383 24.5402 13.7237 22.3662 15.274 20.6118L18.21 17.4321C19.8441 15.7419 21.8703 14.5627 24.0731 14.0192C24.7398 13.818 25.3441 13.426 25.8229 12.8847C26.3016 12.3434 26.637 11.6724 26.7938 10.9423C27.0719 9.68007 26.7989 8.34957 26.0534 7.33367L26.0537 7.3335ZM25.1325 10.5132C25.0424 10.9181 24.8533 11.2892 24.5852 11.5878C24.3171 11.8865 23.9796 12.1014 23.6085 12.2102C21.1235 12.83 18.8426 14.1746 17.0132 16.0985L14.0772 19.2782C12.2938 21.2701 11.049 23.7534 10.4782 26.4581C10.3757 26.8535 10.1768 27.2116 9.90274 27.4955C9.62867 27.7791 9.2892 27.9781 8.91984 28.0713C8.27683 28.2434 7.59646 28.0854 7.07523 27.6428C6.554 27.2003 6.25 26.5227 6.25066 25.8055C6.2419 25.6813 6.2419 25.5566 6.25066 25.4323C6.29295 25.1387 6.20345 24.841 6.00969 24.6305C5.85076 24.4549 5.63414 24.3542 5.40687 24.3508L5.30369 24.4068C4.53763 24.5298 3.76752 24.2117 3.27172 23.5674C2.85751 22.9994 2.70839 22.2563 2.86712 21.5535C2.95706 21.1484 3.14612 20.7773 3.41422 20.4787C3.68253 20.1802 4.01983 19.9653 4.3911 19.8563C6.87599 19.2368 9.15684 17.8919 10.9864 15.9681L13.9225 12.7884C15.7058 10.7964 16.9506 8.31315 17.5214 5.60844C17.6188 5.20612 17.8151 4.84011 18.0897 4.54931C18.3642 4.25874 18.7064 4.05422 19.0798 3.95798C19.7228 3.78562 20.4032 3.94363 20.9244 4.38621C21.4456 4.82878 21.7498 5.5064 21.749 6.2238C21.7579 6.34781 21.7579 6.4725 21.749 6.59674C21.7214 6.8769 21.8124 7.15522 21.9963 7.35441C22.1803 7.5536 22.4375 7.65215 22.696 7.62231C23.4622 7.49946 24.2321 7.81734 24.7279 8.46165C25.1528 9.03864 25.3028 9.79837 25.1327 10.513L25.1325 10.5132Z" fill="#12211E"/>
</svg>

<svg xmlns="http://www.w3.org/2000/svg" width="24" height="24" fill="none" viewBox="0 0 24 30"><path fill="#12211E" d="M26.054 7.333c-.635-.874-1.564-1.44-2.583-1.575-.125-1.315-.814-2.49-1.86-3.17a3.616 3.616 0 0 0-3.457-.288c-1.13.499-1.977 1.545-2.286 2.824-.507 2.365-1.592 4.539-3.143 6.294l-2.953 3.198c-1.634 1.69-3.66 2.87-5.863 3.413a3.815 3.815 0 0 0-1.75 1.134 4.29 4.29 0 0 0-.971 1.943 4.483 4.483 0 0 0 .59 3.402c.64.989 1.642 1.632 2.75 1.764.125 1.314.814 2.488 1.86 3.169a3.615 3.615 0 0 0 3.457.288c1.13-.499 1.977-1.545 2.286-2.823.507-2.366 1.593-4.54 3.143-6.294l2.936-3.18c1.634-1.69 3.66-2.87 5.863-3.413a3.812 3.812 0 0 0 1.75-1.134 4.291 4.291 0 0 0 .97-1.943c.279-1.262.006-2.592-.74-3.608Zm-.921 3.18c-.09.405-.28.776-.548 1.075a2.115 2.115 0 0 1-.977.622c-2.485.62-4.765 1.965-6.595 3.889l-2.936 3.18c-1.783 1.991-3.028 4.474-3.599 7.18a2.336 2.336 0 0 1-.575 1.037 2.076 2.076 0 0 1-.983.575 2.026 2.026 0 0 1-1.845-.428 2.407 2.407 0 0 1-.824-1.838 2.653 2.653 0 0 1 0-.373.981.981 0 0 0-.241-.801.83.83 0 0 0-.603-.28l-.103.056c-.766.123-1.536-.195-2.032-.84a2.501 2.501 0 0 1-.405-2.014 2.38 2.38 0 0 1 .547-1.074c.269-.299.606-.514.977-.623 2.485-.62 4.766-1.964 6.595-3.888l2.936-3.18c1.784-1.992 3.029-4.475 3.6-7.18.097-.402.293-.768.568-1.059.274-.29.616-.495.99-.591a2.025 2.025 0 0 1 1.844.428c.522.443.826 1.12.825 1.838.009.124.009.248 0 .373a.978.978 0 0 0 .247.757c.184.2.442.298.7.268.766-.123 1.536.195 2.032.84.425.577.575 1.336.405 2.051Z"/></svg>
